pretzel.svg

<svg fill="currentColor" viewBox="0 0 24 24"><path d="M5.15 15.84A8.97 8.97 0 0 1 3 10v-.03C3 7.22 5.25 5 8 5c1.64 0 3.09.79 4 2 .91-1.21 2.37-2 4-2 2.76 0 5 2.24 5 5 0 2.23-.81 4.27-2.15 5.84l1.36 1.36-1.42 1.41-1.4-1.4A9.04 9.04 0 0 1 12 19c-2 0-3.89-.67-5.39-1.79l-1.4 1.4-1.42-1.41zm10.81-.07L12 11.82l-3.96 3.95C9.17 16.55 10.53 17 12 17s2.83-.45 3.96-1.23M11 10c0-1.66-1.35-3-3-3-1.66 0-3 1.34-3 3 0 1.68.59 3.21 1.57 4.42zm6.43 4.42A7 7 0 0 0 19 10c0-1.67-1.35-3-3-3s-3 1.34-3 3z"/></svg>

<svg  viewBox="0 0 24 24" fill="currentColor"><path  d="M5.15 15.84C3.81 14.27 3 12.23 3 10V9.97C3 7.22 5.25 5 8 5C9.64 5 11.09 5.79 12 7C12.91 5.79 14.37 5 16 5C18.76 5 21 7.24 21 10C21 12.23 20.19 14.27 18.85 15.84L20.21 17.2L18.79 18.61L17.39 17.21C15.89 18.33 14 19 12 19C10 19 8.11 18.33 6.61 17.21L5.21 18.61L3.79 17.2L5.15 15.84M15.96 15.77L12 11.82L8.04 15.77C9.17 16.55 10.53 17 12 17C13.47 17 14.83 16.55 15.96 15.77M11 10C11 8.34 9.65 7 8 7C6.34 7 5 8.34 5 10C5 11.68 5.59 13.21 6.57 14.42L11 10M17.43 14.42C18.41 13.21 19 11.68 19 10V10C19 8.33 17.65 7 16 7C14.35 7 13 8.34 13 10L17.43 14.42Z"/></svg>
